hoodie_driver/public/quality.svg

<svg width="40" height="40" viewBox="0 0 40 40" fill="none" xmlns="http://www.w3.org/2000/svg">
<path d="M36.933 33.9868C36.933 33.9868 32.4934 26.3565 31.697 24.988C32.6031 24.7116 33.5683 24.4675 33.9693 23.775C34.6377 22.6212 33.448 20.7285 33.7604 19.4917C34.0822 18.2189 35.9818 17.1175 35.9818 15.8237C35.9818 14.5632 34.0178 13.0906 33.6958 11.8252C33.3813 10.5887 34.5674 8.69387 33.8969 7.54145C33.2264 6.38893 30.993 6.48362 30.0736 5.59896C29.1277 4.68857 29.1306 2.46114 27.9896 1.85104C26.844 1.23868 24.9822 2.47627 23.7102 2.18312C22.4527 1.89331 21.3293 0 20.0158 0C18.6829 0 16.5628 2.14766 16.2303 2.22495C14.9589 2.52048 13.0947 1.28591 11.9503 1.90088C10.8104 2.51303 10.8174 4.74068 9.87321 5.65258C8.95537 6.53886 6.72188 6.44828 6.05341 7.6021C5.38505 8.7557 6.57476 10.648 6.26247 11.8854C5.94931 13.1259 3.98347 14.3829 3.98347 15.8175C3.98347 17.1114 5.88791 18.2094 6.21166 19.4816C6.52633 20.7181 5.34019 22.6127 6.01071 23.7655C6.37575 24.393 7.20399 24.6506 8.03114 24.8983C8.12767 24.9271 8.31025 25.0351 8.18658 25.2153C7.6207 26.1921 3.06606 34.0527 3.06606 34.0527C2.70372 34.678 2.99796 35.2139 3.71972 35.2443L7.25263 35.3916C7.97439 35.422 8.87981 35.9465 9.26506 36.5576L11.1503 39.549C11.5355 40.1601 12.1468 40.1486 12.509 39.5235C12.509 39.5235 17.7838 30.4168 17.786 30.4142C17.8918 30.2906 17.9982 30.316 18.0491 30.3592C18.6262 30.8506 19.4308 31.3408 20.1023 31.3408C20.7608 31.3408 21.3706 30.8794 21.9737 30.3647C22.0228 30.3229 22.1423 30.2372 22.2296 30.4151C22.231 30.4179 27.5 39.4748 27.5 39.4748C27.8632 40.0991 28.4746 40.1097 28.8586 39.4979L30.7385 36.5029C31.1227 35.8914 32.0271 35.3648 32.7489 35.3334L36.2815 35.1794C37.0029 35.1478 37.2962 34.6111 36.933 33.9868ZM25.8544 25.7952C21.9482 28.0677 17.2595 27.8241 13.6783 25.5652C8.43077 22.204 6.70415 15.2508 9.85873 9.80607C13.0493 4.29856 20.0629 2.3552 25.6201 5.3818C25.6492 5.39769 25.6781 5.41412 25.7071 5.43033C25.7483 5.45314 25.7893 5.47627 25.8303 5.49962C27.5447 6.48805 29.0314 7.9226 30.0959 9.75235C33.3494 15.3448 31.4468 22.5417 25.8544 25.7952Z" fill="#E0CC1B"/>
<path d="M24.9611 7.14561C24.9449 7.1362 24.9285 7.12745 24.9123 7.11815C21.9437 5.40007 18.1601 5.27446 14.9891 7.11934C10.2835 9.85699 8.68225 15.9124 11.4199 20.618C12.2553 22.0539 13.4 23.2002 14.7207 24.0228C14.833 24.0939 14.9467 24.1639 15.0627 24.2311C19.7735 26.9602 25.8257 25.3481 28.5547 20.6376C31.2836 15.9268 29.6719 9.87472 24.9611 7.14561ZM26.1396 14.8465L24.4902 16.4542C23.9793 16.9521 23.66 17.9349 23.7807 18.6381L24.1701 20.9082C24.2907 21.6114 23.8728 21.915 23.2413 21.5831L21.2025 20.5112C20.571 20.1792 19.5377 20.1792 18.9062 20.5112L16.8675 21.5831C16.236 21.915 15.818 21.6114 15.9387 20.9082L16.328 18.6381C16.4487 17.9349 16.1293 16.9521 15.6185 16.4542L13.9691 14.8465C13.4582 14.3486 13.6179 13.8572 14.3239 13.7545L16.6032 13.4233C17.3092 13.3207 18.1452 12.7133 18.461 12.0736L19.4803 10.0082C19.7961 9.3685 20.3128 9.3685 20.6284 10.0082L21.6479 12.0736C21.9636 12.7133 22.7995 13.3207 23.5056 13.4233L25.7849 13.7545C26.4908 13.8572 26.6505 14.3486 26.1396 14.8465Z" fill="#E0CC1B"/>
</svg>

<svg xmlns="http://www.w3.org/2000/svg" width="40" height="40" fill="#e0cc1b" xmlns:v="https://vecta.io/nano"><path d="M36.933 33.987l-5.236-8.999c.906-.276 1.871-.52 2.272-1.213.668-1.154-.521-3.046-.209-4.283.322-1.273 2.221-2.374 2.221-3.668 0-1.261-1.964-2.733-2.286-3.998-.314-1.237.872-3.131.201-4.284S30.992 6.484 30.073 5.6c-.946-.91-.943-3.138-2.084-3.748s-3.007.625-4.279.332C22.453 1.893 21.329 0 20.016 0c-1.333 0-3.453 2.148-3.785 2.225-1.271.296-3.136-.939-4.28-.324s-1.133 2.84-2.077 3.752c-.918.886-3.151.796-3.82 1.95s.521 3.046.209 4.283-2.279 2.497-2.279 3.932c0 1.294 1.904 2.392 2.228 3.664.315 1.236-.871 3.131-.201 4.284.365.628 1.193.885 2.02 1.133.097.029.279.137.155.317l-5.121 8.837c-.362.625-.068 1.161.654 1.192l3.533.147c.722.03 1.627.555 2.012 1.166l1.885 2.991c.385.611.997.6 1.359-.026l5.277-9.109c.106-.124.212-.098.263-.055.577.491 1.382.982 2.053.982.659 0 1.268-.461 1.871-.976.049-.042.169-.127.256.05.001.003 5.27 9.06 5.27 9.06.363.624.975.635 1.359.023l1.88-2.995c.384-.611 1.289-1.138 2.01-1.169l3.533-.154c.721-.032 1.015-.568.651-1.193zm-11.079-8.192c-3.906 2.272-8.595 2.029-12.176-.23a11.75 11.75 0 0 1-3.82-15.759A11.75 11.75 0 0 1 25.62 5.382l.087.049.123.069a11.66 11.66 0 0 1 4.266 4.253 11.75 11.75 0 0 1-4.242 16.043zm-.893-18.649l-.049-.027c-2.969-1.718-6.752-1.844-9.923.001-4.706 2.738-6.307 8.793-3.569 13.499a9.81 9.81 0 0 0 3.301 3.405 10.17 10.17 0 0 0 .342.208c4.711 2.729 10.763 1.117 13.492-3.594s1.117-10.763-3.594-13.492zm1.179 7.701l-1.649 1.608c-.511.498-.83 1.481-.71 2.184l.389 2.27c.121.703-.297 1.007-.929.675l-2.039-1.072c-.631-.332-1.665-.332-2.296 0l-2.039 1.072c-.631.332-1.049.028-.929-.675l.389-2.27c.121-.703-.199-1.686-.71-2.184l-1.649-1.608c-.511-.498-.351-.989.355-1.092l2.279-.331c.706-.103 1.542-.71 1.858-1.35l1.019-2.065c.316-.64.832-.64 1.148 0l1.02 2.065c.316.64 1.152 1.247 1.858 1.35l2.279.331c.706.103.866.594.355 1.092z"/></svg>
